!!!!SEGMENT: artfugue-012.krn
!!!COM: Bach, Johann Sebastian
!!!CDT: 1685/03/31-1750/07/28
!!!OPR@@DE: Die Kunst der Fuge
!!!OPR@EN: The Art of the Fugue
!!!OTL1: Canon alla Ottava
!!!OTL2: Contrapunctus XII: Canon at the Octave
!!!ONB: #?? in 1878 edition (SMS1)
!!!ONB: #12 in 1926 edition (SMS2)
!!!SCA: BWV 1080
!!!voices: 4
!!!AGN: Canon
**kern	**kern
*part2	*part1
*staff2	*staff1
*I"	*I"
*clefF4	*clefG2
*k[b-]	*k[b-]
*d:	*d:
*M9/16	*M9/16
*MM92	*MM92
=1	=1
16%9r	8.a
.	16dLL
.	16c#X
.	16dJJ
.	16eLL
.	16d
.	16eJJ
=2	=2
16%9r	16fLL
.	16e
.	16fJJ
.	16gLL
.	16f
.	16gJJ
.	16aLL
.	16g
.	16aJJ
=3	=3
16%9r	8b-'/
.	16r
.	8a'
.	16r
.	8g'
.	16r
=4	=4
.	(8qqg/
16%9r	[8.f)
.	8fL]
.	16eJk
.	8fL
.	16gJk
!!LO:LB:g=original
=5!|:	=5!|:
8.A	8aL
.	16ggJk
16DLL	8ffL
16C#X	.
16DJJ	16aJk
16ELL	8gL
16D	.
16EJJ	16eeJk
=6	=6
16FLL	8ddL
16E	.
16FJJ	16fJk
16GLL	8eL
16F	.
16GJJ	16ddJk
16ALL	8cc#XL
16G	.
16AJJ	16eJk
=7	=7
8B-'	16eLL
.	16d
16r	16c#XJJ
8A'	16dLL
.	16e
16r	16fJJ
8G'	16gLL
.	16a
16r	16b-JJ
=8	=8
8qqG/	.
[8.F	16b-LL
.	16a
.	16gJJ
8FL]	16aLL
.	16bn
16EJk	16cc#XJJ
8FL	16ddLL
.	16ee
16GJk	16ffJJ
=9	=9
8AL	16ffLL
.	16dd
16gJk	16eeJJ
8fL	16eeLL
.	16cc#X
16AJk	16ddJJ
8GL	16ddLL
.	16bn
16eJk	16ccnJJ
!!LO:LB:g=original
=10	=10
8dL	16ccLL
.	16a
16FJk	16b-XJJ
8EL	16b-LL
.	16g
16dJk	16aJJ
8c#XL	16aLL
.	16f
16EJk	16gJJ
=11	=11
.	(8qqg/
16ELL	[8.f)
16D	.
16C#XJJ	.
16DLL	16fLL]
16E	16g
16FJJ	16aJJ
16GLL	16b-LL
16A	16a
16B-JJ	16gJJ
=12	=12
.	(8qqdd/
16B-LL	[8.cc#X)
16A	.
16GJJ	.
16ALL	16cc#LL]
16Bn	16dd
16c#XJJ	16eeJJ
16dLL	16ffLL
16e	16ee
16fJJ	16ddJJ
=13	=13
16fLL	[4.gg#m
16d	.
16eJJ	.
16eLL	.
16c#X	.
16dJJ	.
16dLL	8.gg#]
16Bn	.
16cnJJ	.
=14	=14
16cLL	8aa
16A	.
16B-XJJ	16r
16B-LL	8r
16G	.
16AJJ	16cc#X
16ALL	8ddL
16F	.
16GJJ	16eeJk
!!LO:LB:g=original
=15	=15
8qqG/	.
[8.F	16aLL
.	16bn
.	16cc#XJJ
16FLL]	16ddLL
16G	16ee
16AJJ	16ffJJ
16B-LL	[>8.g
16A	.
16GJJ	.
=16	=16
(8qqd/	.
[8.c#X)	16gLL]
.	16gg
.	16ffJJ
16c#]LL	16eeLL
16d	16dd
16eJJ	16cc#XJJ
16fLL	[8.dd
16e	.
16dJJ	.
=17	=17
*clefG2	*
[4.gM	16dd]LL
.	16bn
.	16cc#JJ
.	16ddLL
.	16ee
.	16ffJJ
8.g]	16eeLL
.	16ff
.	16ddJJ
=18	=18
8a	16cc#LL
.	16dd
16r	16eeJJ
8r	[8.a
16c#	.
8dL	16a]LL
.	16b-
16eJk	16gJJ
=19	=19
16ALL	16fLL
16Bn	16g
16c#XJJ	16eJJ
16dLL	16fLL
16e	16a
16fJJ	16ddJJ
[8.G	16ccLL>
.	16b-
.	16aJJ
!!LO:LB:g=original
=20	=20
16GLL]	16b-LL
16g	16dd
16fJJ	16ggJJ
16eLL	16cc#LL
16d	16ee
16c#XJJ	16aJJ
[8.d	16b-LL
.	16a
.	16gJJ
=21	=21
16d]LL	16fLL
16Bn	16g
16c#XJJ	16eJJ
16dLL	8fL
16e	.
16fJJ	16ddJk
16eLL	8gL
16f	.
16dJJ	16fJk
=22	=22
16c#XLL	16fLL
16d	16e
16eJJ	16dJJ
*clefF4	*
[8.A	16fLL
.	16e
.	16dJJ
16ALL]	8.c#Xmm
16B-	.
16GJJ	.
=23	=23
16FLL	8d
16G	.
16EJJ	16r
16FLL	8.r
16A	.
16dJJ	.
16cLL	8.r
16B-	.
16AJJ	.
=24	=24
16B-LL	16%9r
16d	.
16gJJ	.
16c#XLL	.
16e	.
16AJJ	.
16B-LL	.
16A	.
16GJJ	.
!!LO:LB:g=original
=25	=25
16FLL	8.dd
16G	.
16EJJ	.
8FL	16aLL
.	16g#X
16dJk	16aJJ
8GL	16bnLL
.	16a
16FJk	16bJJ
=26	=26
16ELL	16ccLL
16A	16bn
16GJJ	16cc#XJJ
16FLL	16ddLL
16E	16cc#
16DJJ	16ddJJ
8.C#Xmm	16eeLL
.	16dd
.	16eeJJ
=27	=27
8D	8ff'
16r	16r
8.r	8ee'
.	16r
8.r	8dd'
.	16r
=28	=28
.	(8qqdd/
16%9r	[8.cc#X)
.	8cc#L]
.	16aJk
.	8bnL
.	16cc#Jk
=29	=29
8.d	16ddLL
.	16ccn
.	16bnJJ
16ALL	8ccL
16G#X	.
16AJJ	16aaJk
16BnLL	8gg#XL
16A	.
16BJJ	16ddJk
!!LO:LB:g=original
=30	=30
16cLL	8eeL
16Bn	.
16c#XJJ	16ggnJk
16dLL	16ffLL
16c#	16ee
16dJJ	16ddJJ
16eLL	8cc#XL
16d	.
16eJJ	16bb-Jk
=31	=31
8f'	16aaLL
.	16ff
16r	16ddJJ
8e'	16ddLL
.	16gg
16r	16ccJJ
8d'	16ccLL
.	16ff
16r	16b-JJ
=32	=32
*clefG2	*
(8qqd/	.
[8.c#X)	16b-LL
.	16a
.	16gJJ
8c#L]	16aLL
.	16cc#X
16AJk	16eeJJ
8BnL	16ggLL
.	16ff
16c#Jk	16eeJJ
=33	=33
16dLL	16ffLL
16cn	16ee
16BnJJ	16ddJJ
8cL	16eeLL
.	16dd
16aJk	16ccJJ
8g#XL	16ddLL
.	16cc
16dJk	16bnJJ
=34	=34
8eL	16ccLL
.	16dd
16gnJk	16eeJJ
16fLL	16ddLL
16e	16ee
16dJJ	16ffJJ
8c#XL	16eeLL
.	16ff
16b-Jk	16ggJJ
!!LO:LB:g=original
=35	=35
16aLL	16ffLL
16f	16dd
16dJJ	16aaJJ
16dLL	16b-LL
16g	16ee
16cJJ	16ggJJ
16cLL	16aLL
16f	16dd
16B-JJ	16ffJJ
=36	=36
16B-LL	16gLL
16A	16cc#
16GJJ	16eeJJ
16ALL	16fLL
16c#X	16a
16eJJ	16gJJ
16gLL	16b-LL
16f	16a
16eJJ	16cc#JJ
=37	=37
16fLL	16ddLL
16e	16ee
16dJJ	16ffJJ
16eLL	4.g#m
16d	.
16cJJ	.
16dLL	.
16c	.
16BnJJ	.
=38	=38
16cLL	8a
16d	.
16eJJ	16r
16dLL	8r
16e	.
16fJJ	16bn
16eLL	8ccL
16f	.
16gJJ	16aJk
=39	=39
16fLL	8ddL
16d	.
16aJJ	16ffJk
16B-LL	16ffLL
16e	16ee
16gJJ	16ddJJ
16ALL	16ccLL
16d	16dd
16fJJ	16bnJJ
!!LO:LB:g=original
=40	=40
16GLL	8.eeL
16c#X	.
16eJJ	.
16FLL	8.aJ
16A	.
16GJJ	.
16B-LL	8.r
16A	.
16c#XJJ	.
=41	=41
16dLL	8.a
16e	.
16fJJ	.
4.G#Xm	16eeLL
.	16ff
.	16eeJJ
.	16ddLL
.	16ee
.	16ddJJ
=42	=42
8A	16ccLL
.	16dd
16r	16ccJJ
8r	16bnLL
.	16cc
16Bn	16bJJ
8cL	16aLL
.	16b
16AJk	16aJJ
=43	=43
8dL	8g#X'
16fJk	16r
16fLL	8a'
16e	.
16dJJ	16r
16cLL	8b-'
16d	.
16BnJJ	16r
=44	=44
.	(8qqbn/
8.cL	[8.cc)
8.AJ	8ccL]
.	16ddJk
8.r	8ccL
.	16bJk
!!LO:LB:g=original
=45	=45
8.A	16aLL
.	16e
.	16aJJ
16eLL	16ccLL
16f	16a
16eJJ	16ccJJ
16dLL	8eeL
16e	.
16dJJ	16g#XJk
=46	=46
16cLL	8aL
16d	.
16cJJ	16ffJk
16BnLL	8gnL
16c	.
16BJJ	16eeJk
16ALL	8fL
16B	.
16AJJ	16ddJk
=47	=47
8G#X'	16eLL
.	16bn
16r	16ddJJ
*clefF4	*
8A'	16ccLL
.	16b
16r	16aJJ
8Bn'	16g#XLL
.	16dd
16r	16ffJJ
=48	=48
[8.c	16eeLL
.	16dd
.	16ccJJ
8cL]	16bnLL
.	16a
16dJk	16g#XJJ
8cL	16aLL
.	16e
16BJk	16bJJ
=49	=49
16ALL	16ccLL
16E	16bn
16AJJ	16aJJ
16cLL	[8.ee
16A	.
16cJJ	.
8eL	16eeLL]
.	16bn
16G#XJk	16ddJJ
!!LO:LB:g=original
=50	=50
8AL	(16ddLL
.	16cc)
16fJk	16aaJJ
8GnL	(16ccLL
.	16bn)
16eJk	16ggJJ
8FL	(16bLL
.	16a)
16dJk	16ffJJ
=51	=51
16CLL	(16aLL
16Bn	16g#X)
16dJJ	16bnJJ
16cLL	8e
16B	.
16AJJ	16r
16G#XLL	8.r
16d	.
16fJJ	.
=52	=52
16eLL	8.r
16d	.
16cJJ	.
16BnLL	[8.dd
16A	.
16G#XJJ	.
16ALL	16ddLL]
16E	16cc
16BJJ	16ddJJ
=53	=53
16cLL	16eeLL
16Bn	16dd
16AJJ	16ccJJ
*clefG2	*
[8.e	16bnLL
.	16cc
.	16ddJJ
16eLL]	16eeLL
16B	16ff#X
16dJJ	16gg#XJJ
=54	=54
(16dLL	16aaLL
16c)	16ee
16aJJ	16ccJJ
(16cLL	16ddLL
16Bn)	16ggn
16gJJ	16bnJJ
(16BLL	16ccLL
16A)	16ff
16fJJ	16aJJ
!!LO:LB:g=original
=55	=55
(16ALL	16bnLL
16G#X)	16ee
16BnJJ	16ddJJ
8E	16ccLL
.	16b
16r	16aJJ
8.r	16bLL
.	16a
.	16g#XJJ
=56	=56
8.r	16aLL
.	16g#X
.	16f#XJJ
[8.d	16g#LL
.	16e
.	16g#JJ
16dLL]	16bnLL
16c	16ee
16dJJ	16ddJJ
=57	=57
16eLL	16ccLL
16d	16bn
16cJJ	16aJJ
16BnLL	[8.dd
16c	.
16dJJ	.
16eLL	16dd]LL
16f#X	16cc
16g#XJJ	16bJJ
=58	=58
16aLL	8cc'
16e	.
16cJJ	16r
16dLL	8ff'
16g	.
16BnJJ	16r
16cLL	8ee'
16f	.
16AJJ	16r
*clefF4	*
=59	=59
16BnLL	8ddL
16e	.
16dJJ	16g#XJk
16cLL	8aL
16B	.
16AJJ	16ccJk
16BLL	8.fww
16A	.
16G#XJJ	.
!!LO:LB:g=original
=60	=60
16ALL	8e
16G#X	.
16F#XJJ	16r
16G#LL	8.r
16E	.
16G#JJ	.
16BnLL	8.r
16e	.
16dJJ	.
=61	=61
16cLL	16r
16Bn	16dLL
16AJJ	16eJJ
[8.d	16fLL
.	16g
.	16fJJ
16dLL]	[8.e
16c	.
16BJJ	.
=62	=62
8c'	16e]LL
.	16f
16r	16gJJ
8f'	16aLL
.	16b-
16r	16aJJ
8e'	16gLL
.	16a
16r	16gJJ
=63	=63
8dL	16fLL
.	16g
16G#XJk	16fJJ
8AL	16eLL
.	16f
16cJk	16eJJ
!LO:MOR:acc=none	!
8.FMM	16dLL
.	16e
.	16dJJ
=64	=64
8E	8c#X'
16r	16r
8.r	8d'
.	16r
8.r	8e'
.	16r
!!LO:LB:g=original
=65	=65
16r	[8.f
16DLL	.
16EJJ	.
16FLL	8fL]
16G	.
16FJJ	16aJk
[8.E	8gML
.	16fJk
=66	=66
16ELL]	16gLL
16F	16f
16GJJ	16eJJ
16ALL	4.cc#XW
16B-	.
16AJJ	.
16GLL	.
16A	.
16GJJ	.
=67	=67
16FLL	16ddLL
16G	16b-
16FJJ	16ggJJ
16ELL	16ccnLL
16F	16a
16EJJ	16ffJJ
16DLL	16b-LL
16E	16g
16DJJ	16eeJJ
=68	=68
8C#X'	16aLL
.	16g
16r	16eeJJ
8D'	16aLL
.	16f
16r	16ddJJ
8E'	16gLL
.	16e
16r	16cc#XJJ
=69	=69
[8.F	16ddLL
.	16a
.	16fJJ
8FL]	16dLL
.	16e
16AJk	16fJJ
8GML	16eLL
.	16f
16FJk	16dJJ
!!LO:LB:g=original
=70	=70
16GLL	[8.e
16F	.
16EJJ	.
4.c#XW	16eLL]
.	16f
.	16gJJ
.	16fLL
.	16g
.	16eJJ
=71	=71
16dLL	8f'
16B-	.
16gJJ	16r
16cnLL	8e'
16A	.
16fJJ	16r
16B-LL	8d'
16G	.
16eJJ	16r
=72	=72
16ALL	8c#X'
16G	.
16eJJ	16r
16ALL	8d'
16F	.
16dJJ	16r
16GLL	8e'
16E	.
16c#XJJ	16r
=73	=73
16dLL	16fLL
16A	16e
16FJJ	16dJJ
16DLL	16b-LL
16E	16a
16FJJ	16gJJ
16ELL	8cc#X
16F	.
16DJJ	16r
=74	=74
[8.E	16r
.	16gLL
.	16dJJ
16ELL]	16c#XLL
16F	16d
16GJJ	16eJJ
16FLL	16ALL
16G	16Bn
16EJJ	16c#XJJ
!!LO:LB:g=original
=75	=75
8F'	16dLL
.	16G
16r	16B-JJ
8E'	16cnLL
.	16F
16r	16AJJ
8D'	16B-LL
.	16E
16r	16GJJ
=76	=76
8C#X'	16ALL
.	16a
16r	16gJJ
8D'	16fLL
.	16dd
16r	16ccJJ
8E'	16b-LL
.	16a
16r	16b-JJ
=77	=77
16FLL	8.a
16E	.
16DJJ	.
16B-LL	16dLL
16A	16c#X
16GJJ	16dJJ
8c#X	16eLL
.	16d
16r	16eJJ
=78	=78
16r	16fLL
16GLL	16e
16DJJ	16fJJ
16C#XLL	16gLL
16D	16f
16EJJ	16gJJ
16AALL	16aLL
16BBn	16g
16C#JJ	16aJJ
=79	=79
16DLL	8b-'
16GG	.
16BB-JJ	16r
16CnLL	8a'
16FF	.
16AAJJ	16r
16BB-LL	8g'
16EE	.
16GGJJ	16r
!!LO:LB:g=original
=80	=80
.	(8qqg/
16AALL	[8.f)
16A	.
16GJJ	.
16FLL	8fL]
16d	.
16cJJ	16eJk
16B-LL	8fL
16A	.
16B-JJ	16gJk
=81:|!	=81:|!
8.A	8aL
.	16ggJk
16DLL	8ffL
16C#X	.
16DJJ	16aJk
16ELL	8gL
16D	.
16EJJ	16eeJk
=82	=82
16FLL	8ddL
16E	.
16FJJ	16fJk
16GLL	8eL
16F	.
16GJJ	16ddJk
16ALL	8cc#XL
16G	.
16AJJ	16eJk
=83	=83
8B-'	16eLL
.	16d
16r	16c#XJJ
8A'	16dLL
.	16e
16r	16fJJ
8G'	16gLL
.	16a
16r	16b-JJ
=84	=84
(8qqG/	.
[8.F)	16b-LL
.	16a
.	16gJJ
8FL]	16aLL
.	16bn
16EJk	16cc#XJJ
8FL	16ddLL
.	16ee
16GJk	16ffJJ
!!LO:LB:g=original
=85	=85
8AL	16ffLL
.	16dd
16gJk	16eeJJ
8fL	16eeLL
.	16cc#X
16AJk	16ddJJ
8GL	16ddLL
.	16bn
16eJk	16ccnJJ
=86	=86
8dL	16ccLL
.	16a
16FJk	16b-XJJ
8EL	16b-LL
.	16g
16dJk	16aJJ
8c#XL	16aLL
.	16f
16EJk	16gJJ
=87	=87
.	(8qqg/
16ELL	[8.f)
16D	.
16C#XJJ	.
16DLL	16fLL]
16E	16g
16FJJ	16aJJ
16GLL	16b-LL
16A	16a
16B-JJ	16gJJ
=88	=88
.	(8qqdd/
16B-LL	[8.cc#X)
16A	.
16GJJ	.
16ALL	16cc#LL]
16Bn	16dd
16c#XJJ	16eeJJ
16dLL	16ffLL
16e	16ee
16fJJ	16ddJJ
!!LO:LB:g=original
=89	=89
16fLL	[4.ggM
16d	.
16eJJ	.
16eLL	.
16c#X	.
16dJJ	.
16dLL	8.gg]
16Bn	.
16cnJJ	.
=90	=90
16cLL	8aa
16A	.
16B-XJJ	16r
16B-LL	8r
16G	.
16AJJ	16cc#X
16ALL	8ddL
16F	.
16GJJ	16eeJk
=91	=91
8qqG/	.
[8.F	16aLL
.	16bn
.	16cc#XJJ
16FLL]	16ddLL
16G	16ee
16AJJ	16ffJJ
16B-LL	[>8.g
16A	.
16GJJ	.
=92	=92
(8qqd/	.
[8.c#X)	16g]LL
.	16gg
.	16ffJJ
16c#LL]	16eeLL
16d	16dd
16eJJ	16cc#XJJ
16fLL	[8.dd
16e	.
16dJJ	.
!!LO:LB:g=original
=93	=93
[4.gW	16dd]LL
.	16bn
.	16cc#JJ
.	16ddLL
.	16ee
.	16ffJJ
8.g]	16eeLL
.	16ff
.	16ddJJ
=94	=94
8a	16cc#LL
.	16dd
16r	16eeJJ
8r	[8.a
.	.
16c#	.
8dL	16a]LL
.	16b-
16eJk	16gJJ
=95	=95
16ALL	16fLL
16Bn	16g
16c#XJJ	16eJJ
16dLL	16fLL
16e	16a
16fJJ	16ddJJ
[8.G	16ccLL>
.	16b-
.	16aJJ
=96	=96
16G]LL	16b-LL
16g	16dd
16fJJ	16ggJJ
16eLL	16cc#LL
16d	16ee
16c#JJ	16aJJ
[8.d	16b-LL
.	16a
.	16gJJ
=97	=97
16d]LL	16fLL
16Bn	16g
16c#XJJ	16eJJ
16dLL	8fL
16e	.
16fJJ	16ddJk
16eLL	8gL
16f	.
16dJJ	16fJk
!!LO:LB:g=original
=98	=98
16c#XLL	16eLL
16d	16a
16eJJ	16gJJ
[8.A	16fLL
.	16e
.	16dJJ
16ALL]	8.c#Xmm
16B-	.
16GJJ	.
=99	=99
16FLL	8d;
16G	.
16EJJ	16r
16FLL	8r
16A	.
16dJJ	16b-
16cLL	8aL
16B-	.
16AJJ	16ffJk
=100	=100
16B-LL	16gLL
16d	16a
16gJJ	16b-JJ
16c#XLL	16aLL
16e	16cc#X
16AJJ	16eeJJ
16B-LL	16ggLL
16A	16ff
16GJJ	16eeJJ
=101	=101
16FLL	8aaL
16G	.
16EJJ	16cc#XJk
8FL	16ddLL
.	16ee
16dJk	16ffJJ
8GL	16b-LL
.	16ee-X
16FJk	16ddJJ
=102	=102
16ELL	16cc#XLL
16A	16dd
16GJJ	16eeJJ
16FLL	8a
16E	.
16DJJ	16r
*	*clefF4
8.C#Xm	8AA
.	16r
=103	=103
4.D	4.DD
8.r	8.r
==	==
*-	*-
!!!RDF**kern: > = above
!!!RDF**kern: < = below
!!!system-decoration: {(s1,s2)}
!!!URL-pdf: https://vmirror.imslp.org/files/imglnks/usimg/8/88/IMSLP504269-PMLP05843-BGA-25.1.pdf#page=75 @{SMS1}
!!!URL-pdf: https://s9.imslp.org/files/imglnks/usimg/1/1d/IMSLP469177-PMLP5843-Bach,_J.S._-_The_Art_of_the_Fugue.pdf#page=70 @{SMS2}
!!!URL-youtube: https://www.youtube.com/watch?v=OMtjlaDEMdI&t=3479s Netherlands Bach Society/Malinowski
!!!URL-youtube: https://www.youtube.com/watch?v=N6sUlZa-IrU&t=3479s Netherlands Bach Society
!!!SMS: @{SMS2}
!!!SMS1: Bach-Gesellschaft Ausgabe, Band 25.1 Leipzig: Breitkopf und Härtel, 1878. Plate B.W. XXV (1).
!!!SMS2: Bach-Gesellschaft Ausgabe, Band 47 Leipzig: Breitkopf und Härtel, 1926. Plate B.W. XLVII.
!!!PED: Wilhelm Rust
!!!PED-ODT: 1822-1892
!!!ONB: Die Kunst der Fuge nach dem Berliner Autograph in Anordnung und Lesarten
!!!ENC: Craig Stuart Sapp
!!!END: 2024/03/26
!!!EED: Craig Stuart Sapp
!!!EEV: 2024/03/28
!!!title: @{OPR} (@{SCA}), @{OTL}
!!!RWG: ornaments need review
